component-icons/svg/datetimepicker.svg

<?xml version="1.0" encoding="utf-8"?>
<!-- Generator: Adobe Illustrator 24.2.3, SVG Export Plug-In . SVG Version: 6.00 Build 0)  -->
<svg version="1.1" id="Layer_1" xmlns="http://www.w3.org/2000/svg" xmlns:xlink="http://www.w3.org/1999/xlink" x="0px" y="0px"
	 width="24px" height="24px" viewBox="0 0 24 24" enable-background="new 0 0 24 24" xml:space="preserve">
<path d="M6,20h3v-3H6V20z M9,9H6v3h3V9z M16,17h-1v2h2v-1h-1V17z M6,16h3v-3H6V16z M4,24h5v-2H4V24z M2,24h2V4H2V24z M17,5h-3v3h3V5
	z M21,4h-2v8h2V4z M0,0v2h22l2-2H0z M14,12h3V9h-3V12z M10,12h3V9h-3V12z M13,5h-3v3h3V5z M15.5,13c-3,0-5.5,2.5-5.5,5.5
	s2.5,5.5,5.5,5.5s5.5-2.5,5.5-5.5S18.5,13,15.5,13z M15.5,22c-1.9,0-3.5-1.6-3.5-3.5s1.6-3.5,3.5-3.5s3.5,1.6,3.5,3.5
	S17.4,22,15.5,22z"/>
</svg>

<svg id="Layer_1" data-name="Layer 1" xmlns="http://www.w3.org/2000/svg" viewBox="0 0 24 24">
  <defs>
    <style>
      .cls-1 {
        fill: gray;
      }
    </style>
  </defs>
  <title>datetimepicker</title>
  <path class="cls-1" d="M6,20H9V17H6ZM9,9H6v3H9Zm7,8H15v2h2V18H16ZM6,16H9V13H6ZM4,24H9V22H4ZM2,24H4V4H2ZM17,5H14V8h3Zm4-1H19v8h2ZM0,0V2H22l2-2ZM14,12h3V9H14Zm-4,0h3V9H10Zm3-7H10V8h3Zm2.5,8A5.5,5.5,0,1,0,21,18.5,5.5,5.5,0,0,0,15.5,13Zm0,9A3.5,3.5,0,1,1,19,18.5,3.5,3.5,0,0,1,15.5,22Z"/>
</svg>
